packages/vibrant-icons/assets/icons/TextH3/Thin.svg

<svg width="24" height="24" viewBox="0 0 24 24" fill="none" xmlns="http://www.w3.org/2000/svg">
<path d="M20.3575 22.7401C18.6805 22.7401 17.5155 21.9171 17.3585 20.6341H18.949C19.065 21.1471 19.618 21.4876 20.352 21.4876C21.155 21.4876 21.6945 21.0581 21.6945 20.4196V20.4091C21.6945 19.6991 21.1505 19.2921 20.2015 19.2921H19.508V18.2551H20.191C21.023 18.2551 21.56 17.8396 21.56 17.1966V17.1861C21.56 16.5636 21.093 16.1766 20.341 16.1766C19.639 16.1766 19.1355 16.5256 19.0335 17.0736H17.539C17.6765 15.7991 18.7415 15.0106 20.341 15.0106C21.9405 15.0106 23.0915 15.7596 23.0915 16.9176V16.9281C23.0915 17.9021 22.3245 18.5744 21.606 18.7184L21.4855 18.7424L21.62 18.7564C22.7495 18.8704 23.397 19.5941 23.397 20.5211V20.5321C23.397 21.1876 23.1195 21.7391 22.5935 22.1281C22.0535 22.5281 21.2805 22.7401 20.3575 22.7401Z" fill="#0C0C0C"/>
<path d="M13.549 12.9251V21H15.4495V3H13.5495V11.0256H3.9V3H2V21H3.9V12.9251H13.549Z" fill="#0C0C0C"/>
</svg>

<svg xmlns="http://www.w3.org/2000/svg" width="24" height="24" fill="none"><path fill="#0C0C0C" d="M20.358 22.74c-1.678 0-2.843-.823-3-2.106h1.591c.116.513.669.854 1.403.854.803 0 1.343-.43 1.343-1.068v-.01c0-.71-.544-1.118-1.494-1.118h-.693v-1.037h.683c.832 0 1.369-.415 1.369-1.058v-.01c0-.623-.467-1.01-1.219-1.01-.702 0-1.206.349-1.308.897H17.54c.137-1.275 1.202-2.063 2.802-2.063s2.75.749 2.75 1.907v.01c0 .974-.767 1.646-1.485 1.79l-.12.024.134.014c1.13.114 1.777.838 1.777 1.765v.011c0 .656-.277 1.207-.803 1.596-.54.4-1.314.612-2.236.612m-6.81-9.815V21h1.9V3h-1.9v8.026H3.9V3H2v18h1.9v-8.075z"/></svg>
